X: 8
T: Out On The Ocean
R: jig
M: 6/8
L: 1/8
K: Gmaj
|: E |D2 B BAG | BdB A2 B | GED G2 A | BcB AGE |
D2 B B2 G | B/c/dB A3 | GED G2 A | BGG G2 :|
d |e2 e edB | e2 e edB | d2 d dBA | d2 d dBA |
G2 A B2 d | ege d2 B | GED G2 A | BGG G2 d |
e2 e edB | egf edB | d^cd def | gfe dBA |
G2 A B2 d | e2 e dBA | GED G2 A | BGG G2 |]


Tune 108	Setting 21013

